X: 25382
T: March From My Mother
R: polka
M: 2/4
K: Dmajor
|:A|d2 ed/e/|fd B2|Bg e/f/e/d/|cB BA|
dc/d/ ed/e/|fd B2|Bg e/f/e/d/|c/d/e d:|
|:A/G/|FA A/B/A/G/|FA A2|df e/f/e/d/|cB BA|
FA A/B/A/G/|FA A2|df ef/e/|d2- d:|

